dist/img/menu/menu__icon9.svg

<svg width="18" height="23" viewBox="0 0 18 23" fill="none" xmlns="http://www.w3.org/2000/svg">
<path d="M17.127 5.96864H3.72762C2.48602 5.96864 1.47098 4.95814 1.47098 3.712C1.47098 2.47039 2.48149 1.45536 3.72762 1.45536H17.1315C17.4669 1.45536 17.7342 1.18347 17.7342 0.852678C17.7342 0.517353 17.4623 0.25 17.1315 0.25H3.72762C1.8199 0.25 0.265625 1.80427 0.265625 3.712V18.788C0.265625 20.6957 1.8199 22.25 3.72762 22.25H17.1315C17.4669 22.25 17.7342 21.9781 17.7342 21.6473V6.57132C17.7297 6.24053 17.4623 5.96864 17.127 5.96864ZM16.5243 21.0446H3.72762C2.48602 21.0446 1.47098 20.0341 1.47098 18.788V6.34022C2.07819 6.86133 2.86666 7.17853 3.72762 7.17853H16.5243V21.0446Z" fill="#BFC0C4" stroke="#BFC0C4" stroke-width="0.5"/>
<path d="M3.91811 3.1637C3.58278 3.1637 3.31543 3.43558 3.31543 3.76637C3.31543 4.09717 3.58731 4.36905 3.91811 4.36905H15.2376C15.5729 4.36905 15.8403 4.09717 15.8403 3.76637C15.8403 3.43558 15.5684 3.1637 15.2376 3.1637H3.91811Z" fill="#BFC0C4" stroke="#BFC0C4" stroke-width="0.5"/>
<path d="M6.03853 18.4074C6.1065 18.43 6.17447 18.4436 6.24244 18.4436C6.49167 18.4436 6.72277 18.2896 6.80887 18.0449L7.54296 15.9921H10.3706C10.3932 15.9921 10.4204 15.9921 10.4431 15.9876L11.1772 18.0449C11.2632 18.2896 11.4989 18.4436 11.7436 18.4436C11.8115 18.4436 11.8795 18.43 11.9475 18.4074C12.2602 18.2941 12.4233 17.9497 12.31 17.637L9.56397 9.93816C9.55944 9.92004 9.55037 9.90191 9.54131 9.88379C9.53678 9.87472 9.53225 9.86566 9.52772 9.8566C9.52319 9.84753 9.51866 9.83847 9.51412 9.82941C9.50959 9.82034 9.50053 9.81128 9.496 9.79769C9.49147 9.79316 9.48693 9.78409 9.4824 9.77956C9.47787 9.7705 9.46881 9.76144 9.45975 9.75237C9.45521 9.74784 9.45068 9.73878 9.44162 9.73425C9.43709 9.72519 9.42803 9.72065 9.41896 9.71159C9.4099 9.70253 9.40537 9.698 9.39631 9.68893C9.39178 9.6844 9.38271 9.67987 9.37818 9.67081C9.36912 9.66175 9.36006 9.65721 9.35099 9.64815C9.34646 9.64362 9.3374 9.63909 9.33287 9.63456C9.3238 9.63003 9.31474 9.62096 9.30568 9.61643C9.29662 9.6119 9.28755 9.60737 9.27849 9.60284C9.26943 9.59831 9.26036 9.59377 9.2513 9.58924C9.23318 9.58018 9.21505 9.57112 9.19692 9.56659H9.19239C9.17427 9.56205 9.15614 9.55752 9.13802 9.55299C9.12895 9.55299 9.12442 9.54846 9.11536 9.54846C9.10177 9.54393 9.0927 9.54393 9.07911 9.5394C9.07005 9.5394 9.06098 9.5394 9.05192 9.53487C9.04286 9.53487 9.02926 9.53033 9.0202 9.53033C9.01114 9.53033 9.00207 9.53033 8.99301 9.53033C8.98395 9.53033 8.97489 9.53033 8.96129 9.53033C8.95223 9.53033 8.93863 9.53033 8.92957 9.53487C8.92051 9.53487 8.91145 9.53487 8.90238 9.5394C8.88879 9.5394 8.87973 9.54393 8.86613 9.54846C8.85707 9.54846 8.85254 9.55299 8.84347 9.55299C8.82535 9.55752 8.80722 9.56205 8.79363 9.56659H8.7891C8.77097 9.57112 8.75285 9.58018 8.73472 9.58924C8.72566 9.59377 8.7166 9.59831 8.70753 9.60284C8.69847 9.60737 8.68941 9.6119 8.68034 9.61643C8.67128 9.62096 8.66222 9.63003 8.64862 9.63456C8.64409 9.63909 8.63503 9.64362 8.6305 9.64815C8.62144 9.65721 8.61237 9.66175 8.60331 9.67081C8.59878 9.67534 8.58972 9.67987 8.58518 9.68893C8.57612 9.698 8.57159 9.70253 8.56253 9.71159C8.55346 9.72065 8.54893 9.72519 8.53987 9.73425C8.53534 9.73878 8.53081 9.74784 8.52174 9.75237C8.51268 9.76144 8.50815 9.7705 8.49909 9.77956C8.49456 9.78409 8.49002 9.79316 8.48549 9.79769C8.48096 9.80675 8.4719 9.81581 8.46737 9.82488C8.46284 9.83394 8.4583 9.843 8.45377 9.85206C8.44924 9.86113 8.44471 9.87019 8.44018 9.87925C8.43112 9.89738 8.42205 9.9155 8.41752 9.93363L5.66242 17.6325C5.56273 17.9497 5.72586 18.2941 6.03853 18.4074ZM8.99754 11.932L10.0171 14.7868H7.97344L8.99754 11.932Z" fill="#BFC0C4" stroke="#BFC0C4" stroke-width="0.5"/>
</svg>

<svg width="18" height="23" fill="none" xmlns="http://www.w3.org/2000/svg"><path d="M17.127 5.969h-13.4a2.26 2.26 0 01-2.256-2.257 2.26 2.26 0 012.257-2.257H17.13a.602.602 0 100-1.205H3.728A3.467 3.467 0 00.266 3.712v15.076a3.468 3.468 0 003.462 3.462H17.13a.602.602 0 00.603-.603V6.571a.61.61 0 00-.607-.602zm-.603 15.076H3.728a2.26 2.26 0 01-2.257-2.257V6.34a3.456 3.456 0 002.257.839h12.796v13.866z" fill="#BFC0C4" stroke="#BFC0C4" stroke-width=".5"/><path d="M3.918 3.164a.602.602 0 100 1.205h11.32a.602.602 0 100-1.205H3.918zm2.121 15.243a.6.6 0 00.77-.363l.734-2.052h2.828c.022 0 .05 0 .072-.004l.734 2.057a.603.603 0 00.77.362.602.602 0 00.363-.77L9.564 9.938c-.005-.018-.014-.036-.023-.054l-.013-.027-.014-.028c-.004-.009-.013-.018-.018-.031l-.014-.018c-.004-.01-.013-.019-.022-.028-.005-.004-.01-.013-.018-.018-.005-.009-.014-.013-.023-.022l-.023-.023c-.004-.005-.013-.01-.018-.018-.009-.01-.018-.014-.027-.023l-.018-.013c-.01-.005-.018-.014-.027-.019l-.028-.013-.027-.014a.277.277 0 00-.054-.022h-.005l-.054-.014c-.01 0-.014-.005-.023-.005-.013-.004-.022-.004-.036-.009-.009 0-.018 0-.027-.004-.01 0-.023-.005-.032-.005h-.059c-.009 0-.022 0-.031.005-.01 0-.019 0-.028.004-.013 0-.022.005-.036.01-.009 0-.013.004-.023.004-.018.005-.036.009-.05.014H8.79c-.018.004-.036.013-.054.022l-.027.014-.028.013c-.009.005-.018.014-.031.019l-.018.013c-.01.01-.019.014-.028.023-.004.004-.013.009-.018.018l-.022.023-.023.022c-.005.005-.01.014-.018.018-.01.01-.014.018-.023.028l-.014.018c-.004.009-.013.018-.018.027l-.013.027-.014.027a.253.253 0 00-.022.055l-2.756 7.699c-.1.317.064.661.377.774zm2.959-6.475l1.02 2.855H7.972l1.025-2.855z" fill="#BFC0C4" stroke="#BFC0C4" stroke-width=".5"/></svg>
